icons/infinity-16.svg

<svg xmlns="http://www.w3.org/2000/svg" width="16" height="16" viewBox="0 0 16 16"><path fill-rule="evenodd" d="M3.5 6c-1.086 0-2 .914-2 2 0 1.086.914 2 2 2 .525 0 1.122-.244 1.825-.727.51-.35 1.025-.79 1.561-1.273-.536-.483-1.052-.922-1.56-1.273C4.621 6.244 4.025 6 3.5 6zm4.5.984c-.59-.533-1.204-1.066-1.825-1.493-.797-.548-1.7-.991-2.675-.991C1.586 4.5 0 6.086 0 8s1.586 3.5 3.5 3.5c.975 0 1.878-.444 2.675-.991.621-.427 1.235-.96 1.825-1.493.59.533 1.204 1.066 1.825 1.493.797.547 1.7.991 2.675.991 1.914 0 3.5-1.586 3.5-3.5s-1.586-3.5-3.5-3.5c-.975 0-1.878.443-2.675.991-.621.427-1.235.96-1.825 1.493zM9.114 8c.536.483 1.052.922 1.56 1.273.704.483 1.3.727 1.826.727 1.086 0 2-.914 2-2 0-1.086-.914-2-2-2-.525 0-1.122.244-1.825.727-.51.35-1.025.79-1.561 1.273z"/></svg>

<svg xmlns="http://www.w3.org/2000/svg" width="16" height="16" viewBox="0 0 16 16">
  <defs/>
  <path d="M8,6.984 C8.59,6.451 9.204,5.918 9.825,5.491 C10.622,4.943 11.525,4.5 12.5,4.5 C14.414,4.5 16,6.086 16,8 C16,9.914 14.414,11.5 12.5,11.5 C11.525,11.5 10.622,11.056 9.825,10.509 C9.204,10.082 8.59,9.549 8,9.016 C7.41,9.549 6.796,10.082 6.175,10.509 C5.378,11.056 4.475,11.5 3.5,11.5 C1.586,11.5 0,9.914 0,8 C0,6.086 1.586,4.5 3.5,4.5 C4.475,4.5 5.378,4.943 6.175,5.491 C6.796,5.918 7.41,6.451 8,6.984 Z M9.114,8 C9.65,8.483 10.166,8.922 10.674,9.273 C11.378,9.756 11.974,10 12.5,10 C13.586,10 14.5,9.086 14.5,8 C14.5,6.914 13.586,6 12.5,6 C11.975,6 11.378,6.244 10.675,6.727 C10.165,7.077 9.65,7.517 9.114,8 Z M3.5,6 C2.414,6 1.5,6.914 1.5,8 C1.5,9.086 2.414,10 3.5,10 C4.025,10 4.622,9.756 5.325,9.273 C5.835,8.923 6.35,8.483 6.886,8 C6.35,7.517 5.834,7.078 5.326,6.727 C4.621,6.244 4.025,6 3.5,6 Z"/>
</svg>
